X: 5
T: The Lisnagun
R: jig
M: 6/8
L: 1/8
K: Amaj
AFE ~A3 | Bce c2a | Bce cBA | BAF AFE |
AFE ~A3 | Bce c2a | Bce cBA|1 BAF A2E :|2 BAF A (3Bcd |]
e2 c cBA | Bce c2a | Bce cBA | BAF AFE |
e2 c cBA | Bce c2a | Bce cBA | BAF A2d |
e2 c cBA | Bce c2a | Bce cBA | BAF AFE |
AFE ~A3 | Bce c2a | B (3Bcd B (3Bcd | B (3Bcd .B2 z |]


Tune 3842	Setting 25790

